svgs/sharp-light/video-arrow-down-left.svg

<svg xmlns="http://www.w3.org/2000/svg" viewBox="0 0 576 512"><!--! Font Awesome Pro 6.6.0 by @fontawesome - https://fontawesome.com License - https://fontawesome.com/license (Commercial License) Copyright 2024 Fonticons, Inc. --><path d="M352 96l0 320L32 416 32 96l320 0zM32 64L0 64 0 96 0 416l0 32 32 0 320 0 32 0 0-32 0-64 0-192 0-64 0-32-32 0L32 64zM416 332.2l0 35.8 128 64 32 16 0-35.8 0-312.4L576 64 544 80 416 144l0 35.8 128-64 0 280.4-128-64zM224 352l16 0 0-32-16 0-73.4 0L283.3 187.3 294.6 176 272 153.4l-11.3 11.3L128 297.4l0-73.4 0-16-32 0 0 16 0 112 0 16 16 0 112 0z"/></svg>

<svg xmlns="http://www.w3.org/2000/svg" viewBox="0 0 576 512"><!--! Font Awesome Pro 6.4.0 by @fontawesome - https://fontawesome.com License - https://fontawesome.com/license (Commercial License) Copyright 2023 Fonticons, Inc. --><path d="M352 96V416H32V96H352zM32 64H0V96 416v32H32 352h32V416 352 160 96 64H352 32zM416 332.2V368l128 64 32 16V412.2 99.8 64L544 80 416 144v35.8l128-64V396.2l-128-64zM224 352h16V320H224 150.6L283.3 187.3 294.6 176 272 153.4l-11.3 11.3L128 297.4V224 208H96v16V336v16h16H224z"/></svg>
